; generated by PrusaSlicer 2.6.0-alpha3+win64 on 2024-01-05 at 03:25:31 UTC


;
;

;
;
; 

; external perimeters extrusion width = 1.12mm
; perimeters extrusion width = 1.12mm
; infill extrusion width = 0.81mm
; solid infill extrusion width = 0.90mm
; top infill extrusion width = 1.00mm
; first layer extrusion width = 1.05mm

M107
M190 S70 ; set bed temperature and wait for it to be reached
M104 S240 ; set temperature
;TYPE:Custom
G28 ; home all axes
G1 Z5 F5000 ; lift nozzle
M109 S240 ; set temperature and wait for it to be reached
G21 ; set units to millimeters
G90 ; use absolute coordinates
M83 ; use relative distances for extrusion
; Filament gcode
M107
;LAYER_CHANGE
;Z:0.2
;HEIGHT:0.2
;BEFORE_LAYER_CHANGE
G92 E0
;0.2


G1 E-6 F3600
G1 Z.2 F7800
;AFTER_LAYER_CHANGE
;0.2
G1 X80.561 Y88.113
G1 E6 F2400
;TYPE:Skirt/Brim
;WIDTH:1.05
G1 F1800
G1 X82.327 Y86.548 E.1976
G1 X84.512 Y85.658 E.19757
G1 X86.025 Y85.493 E.12745
G1 X193.975 Y85.493 E9.03963
G1 X196.3 Y85.89 E.19751
G1 X198.362 Y87.036 E.19755
G1 X199.927 Y88.802 E.1976
G1 X200.817 Y90.987 E.19757
G1 X200.982 Y92.5 E.12745
G1 X200.982 Y137.5 E3.76826
G1 X200.585 Y139.825 E.19751
G1 X199.439 Y141.887 E.19755
G1 X197.673 Y143.452 E.1976
G1 X195.488 Y144.342 E.19757
G1 X193.975 Y144.507 E.12745
G1 X86.025 Y144.507 E9.03963
G1 X83.7 Y144.11 E.19751
G1 X81.638 Y142.964 E.19755
G1 X80.073 Y141.198 E.1976
G1 X79.183 Y139.013 E.19757
G1 X79.018 Y137.5 E.12745
G1 X79.018 Y92.5 E3.76826
G1 X79.415 Y90.175 E.19751
G1 X80.518 Y88.191 E.19009
G1 E-4.2 F3600
;WIPE_START
G1 F6240
G1 X82.327 Y86.548 E-1.33936
G1 X83.105 Y86.231 E-.46064
;WIPE_END
G1 X91.5 Y93.025 F7800
G1 E6 F2400
;TYPE:External perimeter
;WIDTH:1.05
G1 F1800
G1 X91.5 Y98.513 E.45956
G1 X91.531 Y99.678 E.09759
G1 X91.623 Y100.791 E.09352
G1 X91.779 Y101.831 E.08806
G1 X92.005 Y102.832 E.08593
G1 X92.285 Y103.723 E.07821
G1 X92.624 Y104.545 E.07446
G1 X93.018 Y105.293 E.07079
G1 X93.462 Y105.971 E.06787
G1 X93.957 Y106.587 E.06617
G1 X94.493 Y107.136 E.06425
G1 X95.064 Y107.624 E.0629
G1 X95.67 Y108.058 E.06242
G1 X96.304 Y108.439 E.06194
G1 X96.962 Y108.774 E.06183
G1 X97.638 Y109.063 E.06156
G1 X98.34 Y109.318 E.06254
G1 X99.75 Y109.716 E.12269
G1 X101.183 Y110.005 E.12241
G1 X102.591 Y110.205 E.11909
G1 X103.997 Y110.343 E.1183
G1 X105.366 Y110.434 E.11489
G1 X106.644 Y110.487 E.10711
G1 X108.965 Y110.525 E.19438
G1 X171.024 Y110.525 E5.19676
G1 X173.353 Y110.487 E.19505
G1 X174.65 Y110.433 E.1087
G1 X176.001 Y110.344 E.11338
G1 X177.408 Y110.205 E.11839
G1 X178.81 Y110.006 E.11858
G1 X180.243 Y109.718 E.1224
G1 X181.694 Y109.306 E.12631
G1 X182.391 Y109.052 E.06212
G1 X183.176 Y108.704 E.0719
G1 X183.729 Y108.421 E.05202
G1 X184.364 Y108.035 E.06223
G1 X184.968 Y107.599 E.06238
G1 X185.541 Y107.104 E.06341
G1 X186.077 Y106.548 E.06467
G1 X186.567 Y105.93 E.06604
G1 X187.008 Y105.248 E.06801
G1 X187.395 Y104.502 E.07037
G1 X187.73 Y103.682 E.07418
G1 X188.006 Y102.793 E.07795
G1 X188.221 Y101.832 E.08246
G1 X188.372 Y100.828 E.08502
G1 X188.469 Y99.675 E.09689
G1 X188.5 Y98.5 E.09843
G1 X188.5 Y93.025 E.45847
G1 X193.45 Y93.025 E.41451
G1 X193.45 Y136.975 E3.68033
G1 X188.5 Y136.975 E.41451
G1 X188.5 Y131.5 E.45847
G1 X188.469 Y130.322 E.09868
G1 X188.372 Y129.172 E.09664
G1 X188.215 Y128.133 E.08799
G1 X187.996 Y127.171 E.08262
G1 X187.714 Y126.274 E.07874
G1 X187.377 Y125.458 E.07393
G1 X186.982 Y124.707 E.07106
G1 X186.538 Y124.03 E.0678
G1 X186.045 Y123.416 E.06594
G1 X185.509 Y122.866 E.06431
G1 X184.935 Y122.376 E.0632
G1 X184.327 Y121.941 E.0626
G1 X183.696 Y121.561 E.06168
G1 X183.038 Y121.227 E.06179
G1 X182.362 Y120.937 E.0616
G1 X181.659 Y120.682 E.06262
G1 X180.244 Y120.283 E.12311
G1 X178.811 Y119.994 E.12241
G1 X177.409 Y119.795 E.11858
G1 X176.003 Y119.657 E.1183
G1 X174.634 Y119.566 E.11489
G1 X173.356 Y119.513 E.10711
G1 X171.025 Y119.475 E.19522
G1 X107.862 Y119.484 E5.2892
G1 X105.35 Y119.567 E.21047
G1 X104.004 Y119.656 E.11296
G1 X102.614 Y119.792 E.11695
G1 X101.185 Y119.995 E.12086
G1 X99.757 Y120.282 E.12197
G1 X98.304 Y120.694 E.12647
G1 X97.609 Y120.948 E.06196
G1 X96.824 Y121.296 E.0719
G1 X96.271 Y121.579 E.05202
G1 X95.638 Y121.963 E.062
G1 X95.032 Y122.401 E.06261
G1 X94.457 Y122.898 E.06364
G1 X93.925 Y123.45 E.0642
G1 X93.435 Y124.067 E.06598
G1 X92.992 Y124.752 E.06831
G1 X92.603 Y125.501 E.07067
G1 X92.27 Y126.318 E.07388
G1 X91.994 Y127.207 E.07795
G1 X91.778 Y128.171 E.08273
G1 X91.623 Y129.21 E.08797
G1 X91.531 Y130.32 E.09327
G1 X91.5 Y131.486 E.09767
G1 X91.5 Y136.975 E.45964
G1 X86.55 Y136.975 E.41451
G1 X86.55 Y93.025 E3.68033
G1 X91.41 Y93.025 E.40697
G1 E-6 F3600
G1 X191.108 Y93.327 F7800
G1 E6 F2400
;TYPE:Solid infill
;WIDTH:1.05202
G1 F1800
G1 X192.695 Y94.914 E.18832
G1 X192.695 Y96.341 E.11973
G1 X190.134 Y93.78 E.30389
G1 X189.255 Y93.78 E.07375
G1 X189.255 Y94.329 E.04606
G1 X192.695 Y97.768 E.40814
G1 X192.695 Y99.195 E.11973
G1 X189.255 Y95.756 E.40814
G1 X189.255 Y97.183 E.11973
G1 X192.695 Y100.622 E.40814
G1 X192.695 Y102.049 E.11973
G1 X189.253 Y98.607 E.40843
G1 X189.224 Y99.701 E.09183
G1 X189.201 Y99.983 E.02374
G1 X192.695 Y103.476 E.41455
G1 X192.695 Y104.903 E.11973
G1 X189.066 Y101.275 E.43056
G1 X188.953 Y102.025 E.06364
G1 X188.849 Y102.485 E.03957
G1 X192.695 Y106.331 E.45637
G1 X192.695 Y107.758 E.11973
G1 X188.544 Y103.606 E.49262
G1 X188.448 Y103.917 E.02731
G1 X188.151 Y104.64 E.06558
G1 X192.695 Y109.185 E.53926
G1 X192.695 Y110.612 E.11973
G1 X187.679 Y105.596 E.59521
G1 X187.112 Y106.456 E.08643
G1 X192.695 Y112.039 E.66249
G1 X192.695 Y113.466 E.11973
G1 X186.463 Y107.234 E.7395
G1 X186.076 Y107.637 E.04688
G1 X185.734 Y107.932 E.0379
G1 X192.695 Y114.893 E.82601
G1 X192.695 Y116.32 E.11973
G1 X184.93 Y108.556 E.92135
G1 X184.729 Y108.699 E.0207
G1 X184.051 Y109.103 E.06622
G1 X192.695 Y117.747 E1.02571
G1 X192.695 Y119.174 E.11973
G1 X183.093 Y109.572 E1.13939
G1 X182.656 Y109.76 E.03992
G1 X182.067 Y109.974 E.05258
G1 X192.695 Y120.601 E1.26108
G1 X192.695 Y122.028 E.11973
G1 X180.965 Y110.299 E1.39184
G1 X180.446 Y110.447 E.04528
G1 X179.813 Y110.574 E.05417
G1 X192.695 Y123.455 E1.52854
G1 X192.695 Y124.882 E.11973
G1 X178.609 Y110.797 E1.67141
G1 X177.355 Y110.97 E.10622
G1 X192.695 Y126.31 E1.82027
G1 X192.695 Y127.737 E.11973
G1 X176.055 Y111.097 E1.97453
G1 X174.716 Y111.185 E.11259
G1 X192.695 Y129.164 E2.13342
G1 X192.695 Y130.591 E.11973
G1 X188.56 Y126.456 E.49067
G1 X188.741 Y127.034 E.05082
G1 X188.967 Y128.048 E.08717
G1 X189.01 Y128.333 E.02418
G1 X192.695 Y132.018 E.43727
G1 X192.695 Y133.445 E.11973
G1 X189.195 Y129.945 E.41532
G1 X189.224 Y130.295 E.02947
G1 X189.254 Y131.431 E.09535
G1 X192.695 Y134.872 E.40832
G1 X192.695 Y136.22 E.11311
G1 X192.615 Y136.22 E.00671
G1 X189.255 Y132.86 E.3987
G1 X189.255 Y134.287 E.11973
G1 X191.188 Y136.22 E.22937
G1 X189.761 Y136.22 E.11973
G1 X188.802 Y135.261 E.1138
G1 E-6 F3600
G1 X189.486 Y135.261 F7800
G1 X189.486 Y131.48
G1 X189.454 Y130.253
G1 X189.355 Y129.078
G1 X189.189 Y127.972
G1 X188.955 Y126.935
G1 X188.653 Y125.966
G1 X188.283 Y125.063
G1 X187.848 Y124.232
G1 X187.353 Y123.471
G1 X186.802 Y122.781
G1 X186.203 Y122.162
G1 X185.563 Y121.613
G1 X184.89 Y121.129
G1 X184.191 Y120.707
G1 X183.476 Y120.342
G1 X183.246 Y120.243
G1 X182.975 Y120.871
G1 E6 F2400
G1 F1800
G1 X173.347 Y111.243 E1.14248
G1 X171.942 Y111.266 E.1179
G1 X180.175 Y119.498 E.97688
G1 X178.925 Y119.248 E.10696
G1 X178.427 Y119.177 E.04221
G1 X170.53 Y111.28 E.93707
G1 X169.103 Y111.28 E.11973
G1 X176.799 Y118.976 E.91322
G1 X176.072 Y118.905 E.06129
G1 X175.245 Y118.85 E.06954
G1 X167.676 Y111.28 E.89821
G1 X166.249 Y111.28 E.11973
G1 X173.741 Y118.773 E.88907
G1 X172.281 Y118.74 E.12253
G1 X164.822 Y111.28 E.88516
G1 X163.395 Y111.28 E.11973
G1 X170.834 Y118.72 E.88278
G1 X169.407 Y118.72 E.11973
G1 X161.968 Y111.28 E.88278
G1 X160.541 Y111.28 E.11973
G1 X167.98 Y118.72 E.88278
G1 X166.553 Y118.72 E.11973
G1 X159.113 Y111.28 E.88284
G1 X157.686 Y111.28 E.11973
G1 X165.127 Y118.721 E.88296
G1 X163.7 Y118.721 E.11973
G1 X156.259 Y111.28 E.88296
G1 X154.832 Y111.28 E.11973
G1 X162.273 Y118.721 E.88296
G1 X160.846 Y118.721 E.11973
G1 X153.405 Y111.28 E.88296
G1 X151.978 Y111.28 E.11973
G1 X159.419 Y118.721 E.88296
G1 X157.992 Y118.722 E.11973
G1 X150.551 Y111.28 E.88302
G1 X149.124 Y111.28 E.11973
G1 X156.565 Y118.722 E.88302
G1 X155.138 Y118.722 E.11973
G1 X147.697 Y111.28 E.88302
G1 X146.27 Y111.28 E.11973
G1 X153.712 Y118.722 E.88308
G1 X152.285 Y118.722 E.11973
G1 X144.843 Y111.28 E.88308
G1 X143.416 Y111.28 E.11973
G1 X150.858 Y118.723 E.88314
G1 X149.431 Y118.723 E.11973
G1 X141.989 Y111.28 E.88314
G1 X140.561 Y111.28 E.11982
G1 X148.004 Y118.723 E.8832
G1 X146.577 Y118.723 E.11973
G1 X139.134 Y111.28 E.8832
G1 X137.707 Y111.28 E.11973
G1 X145.15 Y118.723 E.8832
G1 X143.723 Y118.724 E.11973
G1 X136.28 Y111.28 E.88326
G1 X134.853 Y111.28 E.11973
G1 X142.297 Y118.724 E.88332
G1 X140.87 Y118.724 E.11973
G1 X133.426 Y111.28 E.88332
G1 X131.999 Y111.28 E.11973
G1 X139.443 Y118.724 E.88332
G1 X138.016 Y118.724 E.11973
G1 X130.572 Y111.28 E.88332
G1 X129.145 Y111.28 E.11973
G1 X136.589 Y118.725 E.88338
G1 X135.162 Y118.725 E.11973
G1 X127.718 Y111.28 E.88338
G1 X126.291 Y111.28 E.11973
G1 X133.735 Y118.725 E.88338
G1 X132.308 Y118.725 E.11973
G1 X124.864 Y111.28 E.88338
G1 X123.437 Y111.28 E.11973
G1 X130.882 Y118.725 E.88344
G1 X129.455 Y118.726 E.11973
G1 X122.009 Y111.28 E.88356
G1 X120.582 Y111.28 E.11973
G1 X128.028 Y118.726 E.88356
G1 X126.601 Y118.726 E.11973
G1 X119.155 Y111.28 E.88356
G1 X117.728 Y111.28 E.11973
G1 X125.174 Y118.726 E.88356
G1 X123.747 Y118.726 E.11973
G1 X116.301 Y111.28 E.88356
G1 X114.874 Y111.28 E.11973
G1 X122.32 Y118.727 E.88362
G1 X120.893 Y118.727 E.11973
G1 X113.447 Y111.28 E.88362
G1 X112.02 Y111.28 E.11973
G1 X119.467 Y118.727 E.88367
G1 X118.04 Y118.727 E.11973
G1 X110.593 Y111.28 E.88367
G1 X109.166 Y111.28 E.11973
G1 X116.613 Y118.727 E.88367
G1 X115.186 Y118.728 E.11973
G1 X107.718 Y111.26 E.88617
G1 X106.258 Y111.227 E.12253
G1 X113.759 Y118.728 E.89008
G1 X112.332 Y118.728 E.11973
G1 X104.755 Y111.15 E.89916
G1 X103.201 Y111.024 E.13082
G1 X110.905 Y118.728 E.91417
G1 X109.478 Y118.728 E.11973
G1 X101.573 Y110.823 E.93802
G1 X101.07 Y110.752 E.04262
G1 X99.824 Y110.501 E.10665
G1 X108.052 Y118.729 E.97635
G1 X106.664 Y118.768 E.11651
G1 X97.025 Y109.129 E1.14378
G1 E-6 F3600
G1 X96.754 Y109.757 F7800
G1 X96.524 Y109.658
G1 X95.809 Y109.293
G1 X95.11 Y108.871
G1 X94.437 Y108.387
G1 X93.797 Y107.838
G1 X93.198 Y107.219
G1 X92.647 Y106.529
G1 X92.152 Y105.768
G1 X91.717 Y104.937
G1 X91.347 Y104.034
G1 X91.045 Y103.065
G1 X90.811 Y102.028
G1 X90.645 Y100.922
G1 X90.546 Y99.747
G1 X90.514 Y98.52
G1 X90.514 Y94.739
G1 X91.198 Y94.739
G1 E6 F2400
G1 F1800
G1 X90.239 Y93.78 E.1138
G1 X88.812 Y93.78 E.11973
G1 X90.745 Y95.713 E.22937
G1 X90.745 Y97.14 E.11973
G1 X87.385 Y93.78 E.3987
G1 X87.305 Y93.78 E.00671
G1 X87.305 Y95.128 E.11311
G1 X90.746 Y98.569 E.40832
G1 X90.779 Y99.764 E.10031
G1 X90.804 Y100.054 E.02442
G1 X87.305 Y96.555 E.4152
G1 X87.305 Y97.982 E.11973
G1 X90.99 Y101.667 E.43727
G1 X91.037 Y101.977 E.02631
G1 X91.281 Y103.048 E.09217
G1 X91.437 Y103.541 E.04339
G1 X87.305 Y99.409 E.49031
G1 X87.305 Y100.836 E.11973
G1 X105.284 Y118.815 E2.13342
G1 X103.945 Y118.903 E.11259
G1 X87.305 Y102.263 E1.97453
G1 X87.305 Y103.691 E.11982
G1 X102.645 Y119.03 E1.82021
G1 X101.391 Y119.203 E.10622
G1 X87.305 Y105.118 E1.67141
G1 X87.305 Y106.545 E.11973
G1 X100.186 Y119.426 E1.52848
G1 X99.597 Y119.544 E.0504
G1 X99.036 Y119.702 E.0489
G1 X87.305 Y107.972 E1.39196
G1 X87.305 Y109.399 E.11973
G1 X97.933 Y120.026 E1.26108
G1 X97.344 Y120.24 E.05258
G1 X96.907 Y120.428 E.03992
G1 X87.305 Y110.826 E1.13939
G1 X87.305 Y112.253 E.11973
G1 X95.949 Y120.897 E1.02571
G1 X95.068 Y121.443 E.08697
G1 X87.305 Y113.68 E.92117
G1 X87.305 Y115.107 E.11973
G1 X94.266 Y122.068 E.82601
G1 X93.922 Y122.365 E.03813
G1 X93.537 Y122.766 E.04664
G1 X87.305 Y116.534 E.7395
G1 X87.305 Y117.961 E.11973
G1 X92.885 Y123.541 E.66213
G1 X92.324 Y124.407 E.08658
G1 X87.305 Y119.388 E.59556
G1 X87.305 Y120.815 E.11973
G1 X91.849 Y125.359 E.5392
G1 X91.552 Y126.083 E.06566
G1 X91.456 Y126.394 E.02731
G1 X87.305 Y122.243 E.49257
G1 X87.305 Y123.67 E.11973
G1 X91.152 Y127.516 E.45643
G1 X91.032 Y128.051 E.04601
G1 X90.933 Y128.724 E.05708
G1 X87.305 Y125.097 E.43045
G1 X87.305 Y126.524 E.11973
G1 X90.799 Y130.017 E.41455
G1 X90.747 Y131.393 E.11554
G1 X87.305 Y127.951 E.40843
G1 X87.305 Y129.378 E.11973
G1 X90.745 Y132.818 E.4082
G1 X90.745 Y134.245 E.11973
G1 X87.305 Y130.805 E.4082
G1 X87.305 Y132.232 E.11973
G1 X90.745 Y135.672 E.4082
G1 X90.745 Y136.22 E.04598
G1 X89.866 Y136.22 E.07375
G1 X87.305 Y133.659 E.30389
G1 X87.305 Y135.086 E.11973
G1 X88.892 Y136.673 E.18832
;LAYER_CHANGE
;Z:0.6
;HEIGHT:0.4
;BEFORE_LAYER_CHANGE
G92 E0
;0.6


G1 E-4.2 F3600
;WIPE_START
G1 F6240
G1 X87.305 Y135.086 E-1.23008
G1 X87.305 Y134.046 E-.56992
;WIPE_END
G1 Z.6 F7800
;AFTER_LAYER_CHANGE
;0.6
G1 X87.576 Y131.375
G1 X87.576 Y94.051
G1 X90.474 Y94.051
G1 X91.465 Y93.06
G1 E6 F2400
;TYPE:External perimeter
;WIDTH:1.12
G1 F1160.363
G1 X91.465 Y98.514 E.93799
G1 X91.496 Y99.677 E.20009
G1 X91.588 Y100.79 E.19207
G1 X91.745 Y101.84 E.18259
G1 X91.972 Y102.843 E.17686
G1 X92.252 Y103.736 E.16095
G1 X92.597 Y104.567 E.15474
G1 X92.992 Y105.317 E.14578
G1 X93.433 Y105.99 E.13838
G1 X93.937 Y106.616 E.13822
G1 X94.475 Y107.167 E.13244
G1 X95.042 Y107.652 E.12832
G1 X95.651 Y108.087 E.12871
G1 X96.288 Y108.47 E.12783
G1 X96.952 Y108.807 E.12806
G1 X97.626 Y109.096 E.12612
G1 X98.332 Y109.352 E.12915
G1 X99.736 Y109.749 E.25093
G1 X101.173 Y110.038 E.25209
G1 X102.582 Y110.239 E.24477
G1 X103.992 Y110.378 E.24367
G1 X105.364 Y110.469 E.23648
G1 X106.643 Y110.522 E.22015
G1 X108.959 Y110.56 E.39836
G1 X171.025 Y110.56 E10.67419
G1 X173.344 Y110.523 E.39888
G1 X174.663 Y110.467 E.22705
G1 X176.001 Y110.379 E.23061
G1 X177.412 Y110.24 E.24384
G1 X178.803 Y110.042 E.24164
G1 X180.235 Y109.755 E.25117
G1 X181.704 Y109.34 E.26253
G1 X182.407 Y109.083 E.12873
G1 X183.192 Y108.735 E.14768
G1 X183.75 Y108.449 E.10784
G1 X184.387 Y108.062 E.12819
G1 X184.987 Y107.629 E.12725
G1 X185.562 Y107.132 E.13071
G1 X186.106 Y106.567 E.13489
G1 X186.598 Y105.947 E.13612
G1 X187.04 Y105.263 E.14006
G1 X187.424 Y104.522 E.14353
G1 X187.763 Y103.692 E.15419
G1 X188.039 Y102.803 E.16009
G1 X188.255 Y101.842 E.1694
G1 X188.406 Y100.841 E.1741
G1 X188.505 Y99.662 E.20348
G1 X188.535 Y98.501 E.19974
G1 X188.535 Y93.06 E.93575
G1 X193.415 Y93.06 E.83927
G1 X193.415 Y136.94 E7.54654
G1 X188.535 Y136.94 E.83927
G1 X188.535 Y131.499 E.93575
G1 X188.504 Y130.323 E.20232
G1 X188.406 Y129.162 E.20038
G1 X188.248 Y128.123 E.18074
G1 X188.031 Y127.169 E.16826
G1 X187.743 Y126.253 E.16514
G1 X187.409 Y125.443 E.15068
G1 X187.008 Y124.683 E.14778
G1 X186.567 Y124.01 E.13838
G1 X186.072 Y123.394 E.13591
G1 X185.534 Y122.841 E.13269
G1 X184.957 Y122.348 E.13052
G1 X184.339 Y121.907 E.13057
G1 X183.712 Y121.53 E.12582
G1 X183.048 Y121.193 E.12806
G1 X182.374 Y120.904 E.12612
G1 X181.668 Y120.648 E.12915
G1 X180.242 Y120.246 E.2548
G1 X178.805 Y119.958 E.25205
G1 X177.418 Y119.761 E.24093
G1 X176.008 Y119.622 E.24367
G1 X174.638 Y119.531 E.23613
G1 X173.357 Y119.478 E.2205
G1 X171.025 Y119.44 E.40111
G1 X107.857 Y119.449 E10.86372
G1 X105.337 Y119.533 E.43363
G1 X104.004 Y119.621 E.22975
G1 X102.61 Y119.758 E.2409
G1 X101.178 Y119.961 E.24874
G1 X99.765 Y120.245 E.24787
G1 X98.289 Y120.662 E.26378
G1 X97.593 Y120.917 E.12748
G1 X96.808 Y121.265 E.14768
G1 X96.25 Y121.551 E.10784
G1 X95.623 Y121.932 E.12618
G1 X95.013 Y122.372 E.12935
G1 X94.429 Y122.876 E.13267
G1 X93.902 Y123.424 E.13075
G1 X93.409 Y124.043 E.13609
G1 X92.96 Y124.737 E.14216
G1 X92.57 Y125.488 E.14554
G1 X92.237 Y126.308 E.15221
G1 X91.961 Y127.197 E.16009
G1 X91.743 Y128.17 E.17149
G1 X91.588 Y129.216 E.18186
G1 X91.496 Y130.315 E.18967
G1 X91.465 Y131.486 E.20146
G1 X91.465 Y136.94 E.93799
G1 X86.585 Y136.94 E.83927
G1 X86.585 Y93.06 E7.54654
G1 X91.375 Y93.06 E.82379
