; generated by PrusaSlicer 2.6.0-alpha3+win64 on 2024-01-15 at 07:07:26 UTC


;
;

;
;
; 

; external perimeters extrusion width = 1.12mm
; perimeters extrusion width = 1.12mm
; infill extrusion width = 0.81mm
; solid infill extrusion width = 0.90mm
; top infill extrusion width = 1.00mm
; first layer extrusion width = 1.05mm

; external perimeters extrusion width = 1.12mm
; perimeters extrusion width = 1.12mm
; infill extrusion width = 0.81mm
; solid infill extrusion width = 0.90mm
; top infill extrusion width = 1.00mm
; first layer extrusion width = 1.05mm

; external perimeters extrusion width = 1.12mm
; perimeters extrusion width = 1.12mm
; infill extrusion width = 0.81mm
; solid infill extrusion width = 0.90mm
; top infill extrusion width = 1.00mm
; first layer extrusion width = 1.05mm

; external perimeters extrusion width = 1.12mm
; perimeters extrusion width = 1.12mm
; infill extrusion width = 0.81mm
; solid infill extrusion width = 0.90mm
; top infill extrusion width = 1.00mm
; first layer extrusion width = 1.05mm

M107
M190 S70 ; set bed temperature and wait for it to be reached
M104 S240 ; set temperature
;TYPE:Custom
G28 ; home all axes
G1 Z5 F5000 ; lift nozzle
M109 S240 ; set temperature and wait for it to be reached
G21 ; set units to millimeters
G90 ; use absolute coordinates
M83 ; use relative distances for extrusion
; Filament gcode
M107
;LAYER_CHANGE
;Z:0.2
;HEIGHT:0.2
;BEFORE_LAYER_CHANGE
G92 E0
;0.2


G1 E-6 F3600
G1 Z.2 F7800
;AFTER_LAYER_CHANGE
;0.2
G1 X97.047 Y91.062
G1 E6 F2400
;TYPE:Skirt/Brim
;WIDTH:1.05
G1 F1800
G1 X102.121 Y85.654 E.62098
G1 X103.074 Y84.809 E.10666
G1 X137.065 Y59.802 E3.53369
G1 X139.183 Y58.657 E.20162
G1 X141.453 Y57.819 E.20263
G1 X143.823 Y57.312 E.20295
G1 X145.395 Y57.165 E.13221
G1 X146.529 Y57.15 E.09497
G1 X148.928 Y57.368 E.20172
G1 X151.297 Y57.931 E.2039
G1 X153.512 Y58.804 E.19937
G1 X155.607 Y59.992 E.20168
G1 X190.384 Y84.697 E3.57221
G1 X192.05 Y86.368 E.19759
G1 X193.211 Y89.109 E.24927
G1 X198.909 Y119.302 E2.57296
G1 X199.031 Y120.602 E.10934
G1 X199.031 Y160.013 E3.30024
G1 X198.634 Y162.339 E.19759
G1 X197.487 Y164.4 E.19751
G1 X195.721 Y165.965 E.1976
G1 X194.618 Y166.522 E.10347
G1 X184.477 Y170.564 E.91417
G1 X181.193 Y171.723 E.29162
G1 X180.481 Y171.908 E.0616
G1 X179.103 Y172.071 E.1162
G1 X136.535 Y172.853 E3.5652
G1 X123.666 Y172.795 E1.07765
G1 X121.622 Y172.599 E.17195
G1 X120.024 Y172.269 E.13664
G1 X118.358 Y171.694 E.14758
G1 X117.321 Y171.198 E.09626
G1 X109.072 Y166.695 E.78698
G1 X90.285 Y154.457 E1.87755
G1 X89.055 Y153.449 E.13317
G1 X88.219 Y152.644 E.09718
G1 X87.366 Y151.696 E.10679
G1 X86.403 Y150.423 E.13367
G1 X85.567 Y149.071 E.13311
G1 X85.049 Y148.062 E.09498
G1 X84.179 Y145.817 E.20162
G1 X83.779 Y144.261 E.13453
G1 X83.526 Y142.665 E.13532
G1 X81.023 Y116.295 E2.21812
G1 X80.969 Y114.717 E.13222
G1 X81.171 Y112.306 E.2026
G1 X81.491 Y110.743 E.1336
G1 X81.806 Y109.654 E.09493
G1 X82.713 Y107.423 E.20167
G1 X83.326 Y106.286 E.10817
G1 X84.197 Y104.956 E.13313
G1 X85.427 Y103.446 E.16309
G1 X96.986 Y91.128 E1.41453
G1 E-4.2 F3600
;WIPE_START
G1 F6240
G1 X99.233 Y88.733 E-1.8
;WIPE_END
G1 X103.477 Y113.62 F7800
G1 X103.411 Y113.62
G1 E6 F2400
;TYPE:External perimeter
;WIDTH:1.05
G1 F1800
G1 X103.499 Y113.896 E.02426
G1 X103.499 Y115.948 E.17183
G1 X103.447 Y116.17 E.01909
G1 X103.318 Y116.334 E.01747
G1 X103.102 Y116.44 E.02015
G1 X92.952 Y116.451 E.84995
G1 X92.715 Y116.392 E.02045
G1 X92.506 Y116.181 E.02487
G1 X92.449 Y115.948 E.02009
G1 X92.449 Y113.905 E.17108
G1 X92.518 Y113.65 E.02212
G1 X92.705 Y113.466 E.02197
G1 X92.952 Y113.401 E.02139
G1 X102.995 Y113.401 E.84099
G1 X103.15 Y113.425 E.01313
G1 X103.35 Y113.553 E.01988
G1 E-4.2 F3600
;WIPE_START
G1 F6240
G1 X103.499 Y113.896 E-.20496
G1 X103.499 Y115.948 E-1.12465
G1 X103.447 Y116.17 E-.12497
G1 X103.318 Y116.334 E-.11436
G1 X103.102 Y116.44 E-.13187
G1 X102.921 Y116.44 E-.09919
;WIPE_END
G1 X102.921 Y117.437 F7800
G1 X104.484 Y117.437
G1 X104.484 Y112.415
G1 X101.406 Y112.415
G1 X99.144 Y106.52
G1 X98.801 Y105.498
G1 E6 F2400
G1 F1800
G1 X99.423 Y105.563 E.05237
G1 X100.299 Y105.742 E.07487
G1 X101.156 Y106.002 E.07499
G1 X101.983 Y106.342 E.07488
G1 X102.775 Y106.759 E.07495
G1 X103.524 Y107.248 E.0749
G1 X104.224 Y107.806 E.07496
G1 X104.868 Y108.427 E.07492
G1 X105.45 Y109.107 E.07495
G1 X105.963 Y109.833 E.07444
G1 X106.547 Y110.914 E.10289
G1 X106.653 Y111.139 E.02083
G1 X106.961 Y111.94 E.07186
G1 X107.258 Y113.089 E.09938
G1 X107.366 Y113.722 E.05377
G1 X107.437 Y114.572 E.07143
G1 X107.437 Y115.373 E.06707
G1 X107.353 Y116.264 E.07494
G1 X107.185 Y117.143 E.07494
G1 X106.935 Y118.002 E.07492
G1 X106.605 Y118.834 E.07495
G1 X106.197 Y119.631 E.07498
G1 X105.717 Y120.386 E.07492
G1 X105.167 Y121.092 E.07494
G1 X104.553 Y121.743 E.07494
G1 X103.881 Y122.333 E.07488
G1 X103.16 Y122.854 E.07449
G1 X101.978 Y123.512 E.11328
G1 X101.156 Y123.85 E.07443
G1 X100.299 Y124.111 E.07502
G1 X99.423 Y124.289 E.07485
G1 X98.533 Y124.384 E.07495
G1 X97.638 Y124.395 E.07495
G1 X96.746 Y124.321 E.07495
G1 X95.865 Y124.163 E.07495
G1 X95.003 Y123.923 E.07493
G1 X94.168 Y123.602 E.07491
G1 X93.366 Y123.205 E.07494
G1 X92.606 Y122.733 E.07492
G1 X91.893 Y122.192 E.07495
G1 X91.235 Y121.586 E.07491
G1 X90.637 Y120.92 E.07495
G1 X90.104 Y120.201 E.07495
G1 X89.644 Y119.44 E.07446
G1 X89.092 Y118.222 E.11198
G1 X88.817 Y117.36 E.07577
G1 X88.628 Y116.485 E.07496
G1 X88.523 Y115.597 E.07488
G1 X88.502 Y114.702 E.07497
G1 X88.565 Y113.81 E.07488
G1 X88.713 Y112.927 E.07497
G1 X88.942 Y112.062 E.07493
G1 X89.253 Y111.223 E.07493
G1 X89.639 Y110.422 E.07446
G1 X90.357 Y109.293 E.11204
G1 X90.928 Y108.592 E.07571
G1 X91.557 Y107.955 E.07496
G1 X92.243 Y107.381 E.0749
G1 X92.98 Y106.874 E.07491
G1 X93.762 Y106.439 E.07493
G1 X94.582 Y106.08 E.07496
G1 X95.432 Y105.799 E.07497
G1 X96.304 Y105.6 E.0749
G1 X97.186 Y105.485 E.07448
G1 X98.523 Y105.468 E.11197
G1 X98.711 Y105.488 E.01583
G1 E-6 F3600
G1 X102.109 Y106.75 F7800
G1 E6 F2400
;TYPE:Solid infill
;WIDTH:1.0674
G1 F1800
G1 X104.389 Y109.029 E.27461
G1 X104.854 Y109.571 E.06083
G1 X105.32 Y110.232 E.06889
G1 X105.921 Y111.344 E.10768
G1 X106.22 Y112.095 E.06886
G1 X106.307 Y112.396 E.02669
G1 X100.504 Y106.593 E.69909
G1 X100.114 Y106.475 E.03471
G1 X99.308 Y106.31 E.07008
G1 X98.71 Y106.247 E.05122
G1 X106.651 Y114.189 E.95672
G1 X106.682 Y114.514 E.02781
G1 X106.682 Y115.338 E.07019
G1 X106.654 Y115.64 E.02584
G1 X97.253 Y106.239 E1.13254
G1 X96.437 Y106.344 E.07008
G1 X96.007 Y106.442 E.03757
G1 X102.21 Y112.646 E.74734
G1 X103.015 Y112.646 E.06857
G1 X103.388 Y112.705 E.03217
G1 X103.809 Y112.939 E.04103
G1 X104.037 Y113.193 E.02908
G1 X104.191 Y113.509 E.02995
G1 X104.233 Y113.672 E.01434
G1 X104.254 Y113.893 E.01891
G1 X104.254 Y114.689 E.06781
G1 X106.463 Y116.898 E.26612
G1 X106.22 Y117.757 E.07605
G1 X106.121 Y118.005 E.02275
G1 X104.232 Y116.116 E.22757
G1 X104.196 Y116.333 E.01874
G1 X104.036 Y116.66 E.03101
G1 X103.804 Y116.915 E.02937
G1 X103.668 Y117.002 E.01375
G1 X105.67 Y119.003 E.24112
G1 X105.541 Y119.255 E.02412
G1 X105.126 Y119.908 E.06591
G1 X102.424 Y117.206 E.32551
G1 X100.976 Y117.206 E.12335
G1 X104.484 Y120.715 E.42267
G1 X104.028 Y121.199 E.05665
G1 X103.757 Y121.437 E.03072
G1 X99.527 Y117.206 E.50965
G1 X98.078 Y117.206 E.12343
G1 X102.948 Y122.076 E.58669
G1 X102.754 Y122.216 E.02038
G1 X102.038 Y122.615 E.06982
G1 X96.629 Y117.206 E.65162
G1 X95.18 Y117.206 E.12343
G1 X101.398 Y123.424 E.74908
G1 E-6 F3600
G1 X101.16 Y122.793 F7800
G1 X104.484 Y117.437
G1 X104.484 Y112.415
G1 X101.215 Y112.415
G1 X101.215 Y113.099
G1 E6 F2400
G1 F1800
G1 X94.889 Y106.773 E.7621
G1 X94.098 Y107.116 E.07344
G1 X93.896 Y107.229 E.01972
G1 X99.313 Y112.646 E.65259
G1 X97.864 Y112.646 E.12343
G1 X92.997 Y107.779 E.58633
G1 X92.7 Y107.983 E.03069
G1 X92.184 Y108.415 E.05733
G1 X96.415 Y112.646 E.50971
G1 X94.968 Y112.648 E.12326
G1 X91.458 Y109.137 E.42291
G1 X90.97 Y109.736 E.06582
G1 X90.829 Y109.957 E.02233
G1 X93.526 Y112.654 E.32491
G1 X92.756 Y112.658 E.06559
G1 X92.338 Y112.802 E.03766
G1 X92.273 Y112.85 E.00688
G1 X90.271 Y110.849 E.24112
G1 X89.949 Y111.518 E.06325
G1 X89.826 Y111.852 E.03032
G1 X92.147 Y114.173 E.27961
G1 E-6 F3600
G1 X89.115 Y112.59 F7800
G1 E6 F2400
G1 F1800
G1 X91.696 Y115.171 E.31093
G1 X91.698 Y116.069 E.0765
G1 X91.782 Y116.419 E.03066
G1 X91.964 Y116.733 E.03092
G1 X92.346 Y117.054 E.0425
G1 X92.621 Y117.164 E.02523
G1 X92.935 Y117.206 E.02699
G1 X93.731 Y117.206 E.06781
G1 X99.938 Y123.413 E.74776
G1 X99.307 Y123.542 E.05486
G1 X98.684 Y123.608 E.05337
G1 X89.294 Y114.217 E1.13128
G1 X89.258 Y114.72 E.04296
G1 X89.292 Y115.664 E.08047
G1 X97.23 Y123.603 E.95635
G1 X96.844 Y123.571 E.03299
G1 X96.034 Y123.426 E.0701
G1 X95.439 Y123.26 E.05262
G1 X89.643 Y117.465 E.69819
G1 X89.798 Y117.95 E.04337
G1 X90.314 Y119.088 E.10644
G1 X90.732 Y119.78 E.06887
G1 X91.222 Y120.442 E.07016
G1 X91.671 Y120.941 E.05718
G1 X93.825 Y123.095 E.25949
G1 E-4.2 F3600
;WIPE_START
G1 F6240
G1 X91.671 Y120.941 E-1.66956
G1 X91.512 Y120.764 E-.13044
;WIPE_END
G1 X105.934 Y139.503 F7800
G1 X105.867 Y139.503
G1 E6 F2400
;TYPE:External perimeter
;WIDTH:1.05
G1 F1800
G1 X105.955 Y139.778 E.02418
G1 X105.955 Y141.83 E.17183
G1 X105.903 Y142.052 E.01909
G1 X105.774 Y142.217 E.01754
G1 X105.558 Y142.322 E.02011
G1 X95.409 Y142.334 E.84987
G1 X95.171 Y142.274 E.02055
G1 X94.963 Y142.064 E.02475
G1 X94.905 Y141.83 E.02019
G1 X94.905 Y139.787 E.17108
G1 X94.974 Y139.533 E.02204
G1 X95.161 Y139.349 E.02197
G1 X95.409 Y139.284 E.02147
G1 X105.452 Y139.284 E.84099
G1 X105.606 Y139.308 E.01305
G1 X105.807 Y139.436 E.01995
G1 E-4.2 F3600
;WIPE_START
G1 F6240
G1 X105.955 Y139.778 E-.20424
G1 X105.955 Y141.83 E-1.12465
G1 X105.903 Y142.052 E-.12497
G1 X105.774 Y142.217 E-.11479
G1 X105.558 Y142.322 E-.13163
G1 X105.376 Y142.322 E-.09972
;WIPE_END
G1 X105.376 Y143.319 F7800
G1 X106.941 Y143.319
G1 X106.941 Y138.298
G1 X103.861 Y138.298
G1 X101.6 Y132.403
G1 X101.257 Y131.38
G1 E6 F2400
G1 F1800
G1 X101.879 Y131.446 E.05238
G1 X102.756 Y131.624 E.07494
G1 X103.612 Y131.885 E.07494
G1 X104.44 Y132.225 E.07495
G1 X105.232 Y132.641 E.07491
G1 X105.981 Y133.131 E.07495
G1 X106.681 Y133.689 E.07496
G1 X107.324 Y134.31 E.07486
G1 X107.907 Y134.989 E.07494
G1 X108.419 Y135.716 E.07446
G1 X109.004 Y136.797 E.10293
G1 X109.109 Y137.022 E.02079
G1 X109.418 Y137.823 E.07189
G1 X109.714 Y138.972 E.09936
G1 X109.822 Y139.604 E.05369
G1 X109.894 Y140.454 E.07143
G1 X109.894 Y141.256 E.06716
G1 X109.81 Y142.147 E.07494
G1 X109.642 Y143.026 E.07494
G1 X109.391 Y143.885 E.07494
G1 X109.061 Y144.717 E.07495
G1 X108.654 Y145.514 E.07494
G1 X108.173 Y146.268 E.07489
G1 X107.624 Y146.975 E.07496
G1 X107.01 Y147.626 E.07494
G1 X106.337 Y148.216 E.07495
G1 X105.617 Y148.737 E.07442
G1 X104.434 Y149.395 E.11336
G1 X103.612 Y149.733 E.07443
G1 X102.756 Y149.993 E.07491
G1 X101.879 Y150.172 E.07495
G1 X100.989 Y150.267 E.07495
G1 X100.095 Y150.277 E.07487
G1 X99.203 Y150.203 E.07495
G1 X98.322 Y150.046 E.07494
G1 X97.46 Y149.805 E.07495
G1 X96.624 Y149.485 E.07496
G1 X95.823 Y149.087 E.0749
G1 X95.062 Y148.616 E.07494
G1 X94.35 Y148.075 E.07488
G1 X93.691 Y147.468 E.07503
G1 X93.093 Y146.803 E.07489
G1 X92.56 Y146.084 E.07495
G1 X92.101 Y145.323 E.07442
G1 X91.548 Y144.104 E.11209
G1 X91.274 Y143.243 E.07566
G1 X91.085 Y142.368 E.07496
G1 X90.98 Y141.48 E.07488
G1 X90.958 Y140.585 E.07497
G1 X91.022 Y139.692 E.07497
G1 X91.169 Y138.81 E.07488
G1 X91.399 Y137.945 E.07495
G1 X91.709 Y137.106 E.0749
G1 X92.095 Y136.304 E.07453
G1 X92.813 Y135.176 E.11197
G1 X93.385 Y134.474 E.07583
G1 X94.013 Y133.838 E.07485
G1 X94.7 Y133.264 E.07497
G1 X95.437 Y132.757 E.07491
G1 X96.219 Y132.322 E.07493
G1 X97.038 Y131.962 E.07492
G1 X97.888 Y131.682 E.07494
G1 X98.76 Y131.483 E.0749
G1 X99.642 Y131.367 E.07449
G1 X100.98 Y131.351 E.11205
G1 X101.168 Y131.371 E.01583
G1 E-6 F3600
G1 X104.566 Y132.632 F7800
G1 E6 F2400
;TYPE:Solid infill
;WIDTH:1.0674
G1 F1800
G1 X106.846 Y134.912 E.27467
G1 X107.31 Y135.454 E.06078
G1 X107.776 Y136.115 E.06889
G1 X108.378 Y137.226 E.10764
G1 X108.676 Y137.978 E.06891
G1 X108.764 Y138.279 E.02671
G1 X102.961 Y132.476 E.69909
G1 X102.57 Y132.357 E.03482
G1 X101.764 Y132.193 E.07007
G1 X101.166 Y132.13 E.05122
G1 X109.108 Y140.072 E.95678
G1 X109.139 Y140.397 E.02781
G1 X109.139 Y141.22 E.07011
G1 X109.11 Y141.523 E.02593
G1 X99.709 Y132.122 E1.13254
G1 X98.894 Y132.227 E.07
G1 X98.464 Y132.325 E.03757
G1 X104.667 Y138.528 E.74728
G1 X105.471 Y138.528 E.06849
G1 X105.845 Y138.587 E.03225
G1 X106.265 Y138.822 E.041
G1 X106.493 Y139.076 E.02908
G1 X106.648 Y139.391 E.02991
G1 X106.69 Y139.555 E.01442
G1 X106.71 Y139.775 E.01882
G1 X106.71 Y140.572 E.06789
G1 X108.919 Y142.781 E.26612
G1 X108.676 Y143.64 E.07605
G1 X108.577 Y143.888 E.02275
G1 X106.689 Y141.999 E.22751
G1 X106.653 Y142.216 E.01874
G1 X106.493 Y142.542 E.03093
G1 X106.261 Y142.798 E.02943
G1 X106.125 Y142.884 E.01371
G1 X108.127 Y144.886 E.24118
G1 X107.998 Y145.138 E.02412
G1 X107.582 Y145.79 E.06588
G1 X104.881 Y143.089 E.32539
G1 X103.432 Y143.089 E.12343
G1 X106.941 Y146.598 E.42273
G1 X106.485 Y147.082 E.05665
G1 X106.214 Y147.32 E.03072
G1 X101.983 Y143.089 E.50971
G1 X100.534 Y143.089 E.12343
G1 X105.404 Y147.959 E.58669
G1 X105.211 Y148.099 E.02031
G1 X104.494 Y148.497 E.06986
G1 X99.086 Y143.089 E.6515
G1 X97.637 Y143.089 E.12343
G1 X103.854 Y149.307 E.74902
G1 E-6 F3600
G1 X103.616 Y148.676 F7800
G1 X106.941 Y143.319
G1 X106.941 Y138.298
G1 X103.671 Y138.298
G1 X103.671 Y138.982
G1 E6 F2400
G1 F1800
G1 X97.346 Y132.656 E.76204
G1 X96.555 Y132.999 E.07344
G1 X96.352 Y133.112 E.01979
G1 X101.769 Y138.528 E.65253
G1 X100.32 Y138.528 E.12343
G1 X95.454 Y133.662 E.58621
G1 X95.157 Y133.866 E.03069
G1 X94.641 Y134.298 E.05733
G1 X98.872 Y138.528 E.50965
G1 X97.425 Y138.53 E.12326
G1 X93.914 Y135.02 E.42291
G1 X93.427 Y135.618 E.0657
G1 X93.286 Y135.84 E.0224
G1 X95.982 Y138.537 E.32485
G1 X95.213 Y138.54 E.06551
G1 X94.795 Y138.685 E.03769
G1 X94.73 Y138.733 E.00688
G1 X92.728 Y136.731 E.24118
G1 X92.405 Y137.401 E.06336
G1 X92.282 Y137.734 E.03024
G1 X94.604 Y140.056 E.27973
G1 E-6 F3600
G1 X91.571 Y138.472 F7800
G1 E6 F2400
G1 F1800
G1 X94.152 Y141.053 E.31093
G1 X94.154 Y141.952 E.07658
G1 X94.239 Y142.302 E.03068
G1 X94.42 Y142.616 E.03087
G1 X94.803 Y142.937 E.04257
G1 X95.078 Y143.047 E.02523
G1 X95.392 Y143.089 E.02699
G1 X96.188 Y143.089 E.06781
G1 X102.395 Y149.296 E.74776
G1 X101.763 Y149.424 E.05493
G1 X101.141 Y149.491 E.05329
G1 X91.75 Y140.1 E1.13134
G1 X91.714 Y140.603 E.04296
G1 X91.748 Y141.547 E.08047
G1 X99.687 Y149.485 E.95635
G1 X99.301 Y149.454 E.03299
G1 X98.49 Y149.308 E.0702
G1 X97.895 Y149.143 E.0526
G1 X92.1 Y143.347 E.69819
G1 X92.254 Y143.833 E.04343
G1 X92.77 Y144.97 E.10636
G1 X93.188 Y145.663 E.06894
G1 X93.679 Y146.325 E.07021
G1 X94.127 Y146.823 E.05706
G1 X96.281 Y148.978 E.25955
G1 E-4.2 F3600
;WIPE_START
G1 F6240
G1 X94.127 Y146.823 E-1.66995
G1 X93.968 Y146.647 E-.13005
;WIPE_END
G1 X133.251 Y145.394 F7800
G1 E6 F2400
;TYPE:External perimeter
;WIDTH:0.681414
G1 F1800
G1 X133.645 Y145.714 E.02695
;WIDTH:0.633334
G1 X133.651 Y145.718 E.00035
;WIDTH:0.65979
G1 X134.621 Y146.416 E.0613
;WIDTH:0.660018
G1 X134.627 Y146.42 E.00037
;WIDTH:0.709711
G1 X135.544 Y147.063 E.0621
;WIDTH:0.759404
G1 X136.46 Y147.706 E.06667
;WIDTH:0.809097
G1 X137.377 Y148.35 E.07139
;WIDTH:0.85879
G1 X138.293 Y148.993 E.07592
;WIDTH:0.859254
G1 X138.3 Y148.998 E.00058
;WIDTH:0.893981
G1 X138.734 Y149.31 E.03783
;WIDTH:0.928708
G1 X139.168 Y149.621 E.03933
;WIDTH:0.936198
G1 X139.214 Y149.656 E.00429
G1 E-4.2 F3600
;WIPE_START
G1 F6240
G1 X139.168 Y149.621 E-.03168
G1 X138.734 Y149.31 E-.29263
G1 X138.3 Y148.998 E-.29295
G1 X138.293 Y148.993 E-.00471
G1 X137.377 Y148.35 E-.61338
G1 X136.534 Y147.758 E-.56465
;WIPE_END
G1 X136.746 Y147.441 F7800
G1 X134.811 Y146.146
G1 X133.833 Y145.459
G1 X133.584 Y145.259
G1 X133.445 Y145.11
G1 X133.442 Y145.106
G1 X133.381 Y145.013
G1 X133.027 Y145.243
G1 E6 F2400
;WIDTH:0.912192
G1 F1800
