; generated by PrusaSlicer 2.6.0-alpha3+win64 on 2024-01-15 at 22:49:38 UTC


;
;

;
;
; 

; external perimeters extrusion width = 1.12mm
; perimeters extrusion width = 1.12mm
; infill extrusion width = 0.81mm
; solid infill extrusion width = 0.90mm
; top infill extrusion width = 1.00mm
; first layer extrusion width = 1.05mm

M107
M190 S70 ; set bed temperature and wait for it to be reached
M104 S240 ; set temperature
;TYPE:Custom
G28 ; home all axes
G1 Z5 F5000 ; lift nozzle
M109 S240 ; set temperature and wait for it to be reached
G21 ; set units to millimeters
G90 ; use absolute coordinates
M83 ; use relative distances for extrusion
; Filament gcode
M107
;LAYER_CHANGE
;Z:0.2
;HEIGHT:0.2
;BEFORE_LAYER_CHANGE
G92 E0
;0.2


G1 E-6 F3600
G1 Z.2 F7800
;AFTER_LAYER_CHANGE
;0.2
G1 X127.254 Y106.057
G1 E6 F2400
;TYPE:Skirt/Brim
;WIDTH:1.05
G1 F1240
G1 X129.715 Y103.124 E.32061
G1 X131.514 Y101.598 E.19754
G1 X132.687 Y101.043 E.10867
G1 X134.804 Y100.273 E.18864
G1 X135.984 Y99.957 E.10229
G1 X139.755 Y99.292 E.32065
G1 X142.114 Y99.279 E.19754
G1 X143.369 Y99.608 E.10864
G1 X145.486 Y100.379 E.18867
G1 X146.593 Y100.895 E.10227
G1 X149.91 Y102.809 E.32069
G1 X151.725 Y104.316 E.19755
G1 X152.475 Y105.374 E.1086
G1 X153.601 Y107.326 E.1887
G1 X154.118 Y108.433 E.10231
G1 X155.427 Y112.031 E.32061
G1 X155.849 Y114.352 E.19754
G1 X155.743 Y115.645 E.10864
G1 X155.352 Y117.864 E.18868
G1 X155.036 Y119.044 E.10229
G1 X153.726 Y122.642 E.32064
G1 X152.558 Y124.692 E.19757
G1 X151.646 Y125.613 E.10854
G1 X149.919 Y127.062 E.18878
G1 X148.919 Y127.763 E.10226
G1 X145.603 Y129.677 E.32061
G1 X143.39 Y130.496 E.1976
G1 X142.099 Y130.616 E.10857
G1 X139.845 Y130.616 E.18875
G1 X138.628 Y130.51 E.1023
G1 X134.857 Y129.845 E.32065
G1 X132.636 Y129.05 E.19754
G1 X131.57 Y128.312 E.10857
G1 X129.844 Y126.863 E.18871
G1 X128.98 Y126 E.10226
G1 X126.518 Y123.066 E.32073
G1 X125.328 Y121.029 E.19755
G1 X124.986 Y119.779 E.10852
G1 X124.594 Y117.559 E.18878
G1 X124.488 Y116.343 E.10221
G1 X124.488 Y112.513 E.32072
G1 X124.885 Y110.188 E.19751
G1 X125.426 Y109.01 E.10855
G1 X126.553 Y107.058 E.18875
G1 X127.202 Y106.131 E.09476
G1 E-4.2 F3600
;WIPE_START
G1 F6240
G1 X129.308 Y103.611 E-1.8
;WIPE_END
G1 X135.836 Y107.913 F7800
G1 E6 F2400
;TYPE:External perimeter
;WIDTH:1.05
G1 F1240
G1 X137.337 Y107.366 E.13378
G1 X140.925 Y106.734 E.30508
G1 X142.867 Y107.441 E.17306
G1 X146.022 Y109.262 E.30505
G1 X147.055 Y111.052 E.17306
G1 X148.301 Y114.475 E.30504
G1 X147.942 Y116.511 E.17312
G1 X146.697 Y119.934 E.30501
G1 X145.113 Y121.263 E.17315
G1 X141.958 Y123.084 E.30505
G1 X139.891 Y123.084 E.17309
G1 X136.304 Y122.452 E.305
G1 X134.72 Y121.123 E.17315
G1 X132.379 Y118.332 E.30504
G1 X132.02 Y116.297 E.17304
G1 X132.02 Y112.654 E.30506
G1 X133.053 Y110.864 E.17306
G1 X135.395 Y108.073 E.3051
G1 X135.751 Y107.943 E.03174
G1 E-4.2 F3600
;WIPE_START
G1 F6240
G1 X137.337 Y107.366 E-.92499
G1 X138.909 Y107.089 E-.87501
;WIPE_END
G1 X138.715 Y108.124 F7800
G1 X135.573 Y112.879
G1 X136.627 Y112.879
G1 E6 F2400
G1 F1240
G1 X136.787 Y112.71 E.01949
G1 X137.063 Y112.628 E.02411
G1 X142.937 Y112.628 E.49188
G1 X143.213 Y112.71 E.02411
G1 X143.381 Y112.893 E.0208
G1 X143.441 Y113.132 E.02063
G1 X143.441 Y116.869 E.31293
G1 X143.374 Y117.12 E.02175
G1 X143.261 Y117.254 E.01468
G1 X143.103 Y117.344 E.01523
G1 X142.937 Y117.372 E.0141
G1 X137.063 Y117.372 E.49188
G1 X136.803 Y117.3 E.02259
G1 X136.613 Y117.094 E.02347
G1 X136.559 Y116.869 E.01938
G1 X136.559 Y113.132 E.31293
G1 X136.603 Y112.966 E.01438
G1 E-4.2 F3600
;WIPE_START
G1 F6240
G1 X136.787 Y112.71 E-.17279
G1 X137.063 Y112.628 E-.1578
G1 X139.744 Y112.628 E-1.46941
;WIPE_END
G1 X139.744 Y111.642 F7800
G1 X144.182 Y111.642
G1 X146.13 Y111.42
G1 X146.722 Y111.078
G1 E6 F2400
;TYPE:Solid infill
;WIDTH:1.10058
G1 F1240
G1 X145.444 Y109.8 E.15895
G1 X142.547 Y108.128 E.29417
G1 X142.12 Y107.972 E.03998
G1 X146.854 Y112.706 E.58878
G1 X147.522 Y114.543 E.1719
G1 X147.473 Y114.822 E.02491
G1 X140.268 Y107.616 E.89617
G1 X138.997 Y107.841 E.11352
G1 X147.249 Y116.093 E1.02633
G1 X147.21 Y116.315 E.01982
G1 X146.88 Y117.22 E.08472
G1 X144.196 Y114.536 E.33382
G1 X144.196 Y116.032 E.13157
G1 X146.481 Y118.317 E.28419
G1 X146.082 Y119.413 E.10258
G1 X144.073 Y117.405 E.2498
G1 X144.027 Y117.502 E.00944
G1 X143.863 Y117.725 E.02434
G1 X143.627 Y117.924 E.02715
G1 X143.348 Y118.061 E.02734
G1 X143.251 Y118.078 E.00866
G1 X145.296 Y120.123 E.25434
G1 X144.678 Y120.642 E.07097
G1 X144.45 Y120.773 E.02313
G1 X141.805 Y118.127 E.32903
G1 X140.309 Y118.127 E.13157
G1 X143.502 Y121.321 E.39719
G1 X142.554 Y121.868 E.09626
G1 X138.36 Y117.674 E.52162
G1 E-6 F3600
G1 X138.36 Y118.358 F7800
G1 X144.427 Y118.358
G1 X144.427 Y111.642
G1 X141.986 Y111.642
G1 X141.986 Y112.326
G1 E6 F2400
G1 F1240
G1 X137.725 Y108.065 E.52995
G1 X137.534 Y108.099 E.01706
G1 X136.602 Y108.438 E.08722
G1 X140.037 Y111.873 E.42722
G1 X138.541 Y111.873 E.13157
G1 X135.633 Y108.964 E.36174
G1 X134.951 Y109.778 E.09339
G1 X137.048 Y111.875 E.26081
G1 X136.671 Y111.933 E.03355
G1 X136.38 Y112.073 E.0284
G1 X136.25 Y112.17 E.01426
G1 X136.057 Y112.38 E.02508
G1 X134.268 Y110.591 E.2225
G1 X133.674 Y111.299 E.08128
G1 X133.603 Y111.422 E.01249
G1 X135.804 Y113.622 E.27368
G1 X135.804 Y115.118 E.13157
G1 X133.056 Y112.37 E.34178
G1 X132.775 Y112.856 E.04937
G1 X132.775 Y113.585 E.06411
G1 X135.804 Y116.614 E.37673
G1 X135.826 Y117.113 E.04393
G1 X135.935 Y117.435 E.0299
G1 X136.138 Y117.726 E.0312
G1 X136.412 Y117.949 E.03107
G1 X136.723 Y118.083 E.02978
G1 X137.045 Y118.127 E.02858
G1 X137.317 Y118.127 E.02392
G1 X141.519 Y122.329 E.52262
G1 X140.023 Y122.329 E.13157
G1 X132.775 Y115.081 E.90146
G1 X132.775 Y116.231 E.10114
G1 X132.849 Y116.651 E.03751
G1 X138.221 Y122.023 E.66813
G1 X136.634 Y121.743 E.14172
G1 X135.461 Y120.759 E.13465
G1 X132.611 Y117.908 E.35453
;LAYER_CHANGE
;Z:0.6
;HEIGHT:0.4
;BEFORE_LAYER_CHANGE
G92 E0
;0.6


G1 E-4.2 F3600
;WIPE_START
G1 F6240
G1 X134.933 Y120.231 E-1.8
;WIPE_END
G1 Z.6 F7800
;AFTER_LAYER_CHANGE
;0.6
G1 X148.413 Y115.873
G1 E6 F2400
;TYPE:External perimeter
;WIDTH:1.12
G1 F981
G1 X146.688 Y120.612 E.86733
G1 X141.516 Y123.598 E1.02709
G1 X135.634 Y122.561 E1.02719
G1 X131.795 Y117.986 E1.02713
G1 X131.795 Y112.014 E1.02707
G1 X135.634 Y107.439 E1.02713
G1 X141.516 Y106.402 E1.02719
G1 X146.688 Y109.388 E1.02709
G1 X148.731 Y115 E1.02712
G1 X148.444 Y115.789 E.14439
G1 E-4.2 F3600
;WIPE_START
G1 F6240
G1 X147.32 Y118.875 E-1.8
;WIPE_END
G1 X146.389 Y118.536 F7800
G1 X135.548 Y118.39
G1 X135.548 Y112.86
G1 X136.609 Y112.86
G1 E6 F2400
G1 F900
G1 X136.778 Y112.683 E.04209
G1 X137.064 Y112.602 E.05112
G1 X142.943 Y112.602 E1.01108
G1 X143.202 Y112.671 E.0461
G1 X143.391 Y112.861 E.04609
G1 X143.46 Y113.119 E.04593
G1 X143.46 Y116.881 E.64699
G1 X143.391 Y117.139 E.04593
G1 X143.178 Y117.342 E.0506
G1 X143.062 Y117.384 E.02122
G1 X142.943 Y117.398 E.02061
G1 X137.057 Y117.398 E1.01228
G1 X136.778 Y117.317 E.04996
G1 X136.609 Y117.14 E.04209
G1 X136.54 Y116.881 E.0461
G1 X136.54 Y113.119 E.64699
G1 X136.586 Y112.947 E.03062
G1 E-4.2 F3600
;WIPE_START
G1 F6240
G1 X136.778 Y112.683 E-.17891
G1 X137.064 Y112.602 E-.16292
G1 X139.725 Y112.602 E-1.45817
;WIPE_END
G1 X139.725 Y111.61 F7800
G1 X144.452 Y111.61
G1 X144.452 Y118.39
G1 X141.268 Y118.39
G1 X142.118 Y122.106
G1 X142.425 Y122.728
G1 E6 F2400
;TYPE:Solid infill
;WIDTH:0.91542
G1 F981
G1 X146.804 Y118.35 E.85426
G1 X147.475 Y116.505 E.27085
G1 X141.126 Y122.854 E1.23872
G1 X140.129 Y122.678 E.13967
G1 X147.965 Y114.842 E1.52884
G1 X147.652 Y113.981 E.12639
G1 X139.131 Y122.502 E1.66248
G1 X138.134 Y122.326 E.13967
G1 X142.397 Y118.064 E.83163
G1 X142.952 Y118.064 E.07657
G1 X143.216 Y118.033 E.03667
G1 X143.481 Y117.936 E.03893
G1 X143.719 Y117.776 E.03956
G1 X143.936 Y117.527 E.04557
G1 X144.079 Y117.217 E.0471
G1 X144.126 Y116.892 E.0453
G1 X144.126 Y116.334 E.07698
G1 X147.339 Y113.121 E.62687
G1 X147.026 Y112.261 E.12626
G1 X144.126 Y115.161 E.5658
G1 X144.126 Y113.988 E.16183
G1 X146.713 Y111.401 E.50473
G1 X146.4 Y110.541 E.12626
G1 X144.089 Y112.852 E.45089
G1 X144.079 Y112.785 E.00935
G1 X143.967 Y112.524 E.03918
G1 X143.709 Y112.216 E.05543
G1 X143.616 Y112.151 E.01565
G1 X146.005 Y109.762 E.4661
G1 X145.262 Y109.333 E.11836
G1 X142.658 Y111.936 E.50795
G1 X141.485 Y111.936 E.16183
G1 X144.518 Y108.903 E.59175
G1 X143.774 Y108.474 E.11848
G1 X140.312 Y111.936 E.67545
G1 X139.139 Y111.936 E.16183
G1 X143.03 Y108.044 E.75925
G1 X142.287 Y107.615 E.11836
G1 X137.599 Y112.303 E.91465
G1 E-6 F3600
G1 X137.599 Y111.61 F7800
G1 X135.548 Y111.61
G1 X135.548 Y118.39
G1 X141.59 Y118.39
G1 X141.59 Y117.697
G1 E6 F2400
G1 F981
G1 X137.137 Y122.15 E.8688
G1 X136.139 Y121.974 E.13981
G1 X140.05 Y118.064 E.76296
G1 X138.877 Y118.064 E.16183
G1 X135.534 Y121.406 E.65214
G1 X134.999 Y120.769 E.11476
G1 X137.704 Y118.064 E.52776
G1 X137.047 Y118.064 E.09064
G1 X136.737 Y118.021 E.04318
G1 X136.624 Y117.971 E.01705
G1 X134.464 Y120.131 E.42143
G1 X133.928 Y119.493 E.11496
G1 X136.005 Y117.416 E.40523
G1 X135.955 Y117.314 E.01567
G1 X135.878 Y116.984 E.04675
G1 X135.878 Y116.37 E.08471
G1 X133.393 Y118.855 E.48483
G1 X132.858 Y118.217 E.11487
G1 X135.878 Y115.197 E.58921
G1 X135.878 Y114.024 E.16183
G1 X132.461 Y117.44 E.66657
G1 X132.461 Y116.267 E.16183
G1 X141.543 Y107.186 E1.77184
G1 X141.393 Y107.099 E.02392
G1 X140.255 Y107.3 E.15943
G1 X132.461 Y115.094 E1.52064
G1 X132.461 Y113.921 E.16183
G1 X138.831 Y107.551 E1.24281
G1 X137.407 Y107.802 E.19948
G1 X132.095 Y113.114 E1.03639
;LAYER_CHANGE
;Z:1
;HEIGHT:0.4
;BEFORE_LAYER_CHANGE
G92 E0
;1


G1 E-4.2 F3600
;WIPE_START
G1 F6240
G1 X134.417 Y110.792 E-1.8
;WIPE_END
G1 Z1 F7800
;AFTER_LAYER_CHANGE
;1
G1 X135.436 Y107.185
G1 E6 F2400
;TYPE:External perimeter
;WIDTH:1.12
G1 F900
G1 X135.467 Y107.148 E.0083
G1 X141.574 Y106.071 E1.0665
G1 X146.939 Y109.168 E1.06538
G1 X149.067 Y115 E1.06768
G1 X146.946 Y120.828 E1.06662
G1 X141.574 Y123.929 E1.06676
G1 X135.467 Y122.852 E1.0665
G1 X131.48 Y118.101 E1.06667
G1 X131.48 Y111.899 E1.06663
G1 X135.378 Y107.254 E1.04287
G1 E-4.2 F3600
;WIPE_START
G1 F6240
G1 X135.467 Y107.148 E-.07586
G1 X138.565 Y106.602 E-1.72414
;WIPE_END
G1 X138.498 Y107.62 F7800
G1 X135.569 Y112.872
G1 X136.63 Y112.872
G1 E6 F2400
G1 F900
G1 X136.793 Y112.699 E.04088
G1 X137.077 Y112.614 E.05098
G1 X142.923 Y112.614 E1.0054
G1 X143.181 Y112.683 E.04593
G1 X143.371 Y112.872 E.04609
G1 X143.44 Y113.131 E.0461
G1 X143.44 Y116.869 E.64287
G1 X143.371 Y117.128 E.0461
G1 X143.161 Y117.328 E.04987
G1 X143.043 Y117.372 E.02166
G1 X142.923 Y117.386 E.02078
G1 X137.077 Y117.386 E1.0054
G1 X136.793 Y117.301 E.05098
G1 X136.63 Y117.128 E.04088
G1 X136.56 Y116.869 E.04614
G1 X136.56 Y113.131 E.64287
G1 X136.606 Y112.959 E.03062
G1 X135.81 Y111.164 F7800
;TYPE:Internal infill
;WIDTH:0.81
G1 F900
G1 X135.974 Y110.878 E.0397
G1 X135.677 Y110.67 E.04367
G1 X139.109 Y109.421 E.43983
G1 X142.05 Y110.209 E.36667
G1 X142.528 Y111.993 E.22242
G1 X142.929 Y111.993 E.04829
G1 X143.184 Y112.023 E.03092
G1 X143.492 Y112.145 E.0399
G1 X143.657 Y112.261 E.02429
G1 X143.908 Y112.559 E.04692
G1 X144.016 Y112.812 E.03313
G1 X144.06 Y113.123 E.03783
G1 X144.06 Y114.996 E.22556
G1 X145.562 Y115.399 E.18728
G1 X145.436 Y116.114 E.08743
G1 X144.06 Y115.746 E.17153
G1 X144.06 Y116.877 E.1362
G1 X144.016 Y117.188 E.03783
G1 X143.882 Y117.483 E.03902
G1 X143.677 Y117.722 E.03792
G1 X143.447 Y117.88 E.0336
G1 X143.188 Y117.976 E.03326
G1 X142.929 Y118.007 E.03141
G1 X140.568 Y118.007 E.28433
G1 X139.739 Y118.836 E.14119
G1 X134.811 Y117.516 E.61439
G1 X134.95 Y118.303 E.09624
G1 X135.138 Y118.353 E.02343
G1 X135.242 Y118.249 E.01771
G1 X135.474 Y118.443 E.03642
G1 X139.551 Y119.536 E.50832
G1 X139.822 Y120.547 E.12605
G1 X142.581 Y120.547 E.33226
G1 X142.373 Y120.25 E.04367
G1 X143.31 Y119.464 E.14729
G1 E-6 F3600
G1 X148.328 Y113.849 F7800
G1 E6 F2400
;TYPE:Solid infill
;WIDTH:0.907181
G1 F900
G1 X146.873 Y112.394 E.28106
G1 X146.699 Y113.381 E.13689
G1 X148.347 Y115.03 E.31844
G1 X148.038 Y115.882 E.12379
G1 X146.525 Y114.369 E.29226
G1 X146.351 Y115.356 E.13689
G1 X147.728 Y116.733 E.26599
G1 X147.513 Y117.322 E.08564
G1 X147.192 Y117.236 E.04539
G1 X147.153 Y117.32 E.01265
G1 X145.86 Y116.028 E.24967
G1 X146.22 Y117.548 F7800
G1 F900
G1 X147.108 Y118.436 E.17153
G1 X146.798 Y119.288 E.12384
G1 X145.848 Y118.338 E.18351
G1 X145.216 Y118.868 E.11266
G1 X146.488 Y120.14 E.24571
G1 X146.403 Y120.373 E.03388
G1 X145.868 Y120.681 E.08432
G1 X144.585 Y119.398 E.24783
G1 X143.953 Y119.928 E.11266
G1 X145.132 Y121.107 E.22774
G1 X144.395 Y121.532 E.1162
G1 X143.776 Y120.913 E.11957
G1 X144.059 Y121.316 E.06726
G1 X143.018 Y121.316 E.14219
G1 X143.5 Y121.798 E.09311
G1 X143.558 Y122.015 E.03068
G1 X142.923 Y122.382 E.10018
G1 X141.857 Y121.316 E.20592
G1 X140.695 Y121.316 E.15872
G1 X142.186 Y122.807 E.28801
G1 X141.451 Y123.231 E.1159
G1 X139.534 Y121.316 E.37011
G1 X139.148 Y121.316 E.05272
G1 X139.086 Y122.03 E.09789
G1 X140.038 Y122.982 E.18389
G1 X139.018 Y122.802 E.14147
G1 X139.047 Y122.471 E.04538
G1 X138.387 Y122.294 E.09333
G1 X138.324 Y122.43 E.02047
G1 X134.977 Y119.083 E.64653
G1 E-6 F3600
G1 X134.168 Y119.762 F7800
G1 X135.994 Y108.062
G1 X142.369 Y107.675
G1 X142.369 Y107.674
G1 X142.717 Y107.076
G1 E6 F2400
G1 F900
G1 X147.047 Y111.406 E.83641
G1 X147.236 Y111.925 E.07544
G1 X146.669 Y112.19 E.08549
G1 X141.278 Y106.799 E1.04136
G1 X140.291 Y106.973 E.13689
G1 X142.509 Y109.192 E.42854
G1 X140.683 Y108.527 E.26544
G1 X139.303 Y107.147 E.26657
G1 X139.056 Y107.191 E.03427
G1 X139.021 Y107.594 E.05525
G1 X138.623 Y107.629 E.05457
G1 X138.857 Y107.862 E.0451
G1 X138.346 Y107.677 E.07423
G1 X138.64 Y108.773 E.15499
G1 X138.615 Y108.782 E.00363
G1 X137.328 Y107.496 E.24851
G1 X136.341 Y107.67 E.13689
G1 X137.764 Y109.092 E.27478
G1 X136.912 Y109.402 E.12384
G1 X135.57 Y108.06 E.25923
G1 X135.04 Y108.692 E.11266
G1 X136.061 Y109.712 E.19713
G1 X135.209 Y110.022 E.12384
G1 X134.51 Y109.323 E.13502
G1 X134.257 Y109.625 E.05381
G1 X134.489 Y109.956 E.05521
G1 X134.235 Y110.21 E.04906
G1 X134.357 Y110.332 E.02357
G1 X134.026 Y110.453 E.04814
G1 X134.956 Y111.104 E.15506
G1 X134.594 Y111.731 E.09889
G1 X133.45 Y110.587 E.22098
G1 X132.92 Y111.218 E.11256
G1 X134.169 Y112.467 E.24127
G1 X133.744 Y113.203 E.11609
G1 X132.39 Y111.85 E.26145
G1 X132.146 Y112.141 E.05187
G1 X132.146 Y112.767 E.0855
G1 X133.587 Y114.208 E.27835
G1 X134.117 Y115.9 F7800
G1 F900
G1 X132.146 Y113.928 E.38083
G1 X132.146 Y114.574 E.08824
G1 X132.536 Y114.678 E.05513
G1 X132.477 Y115.359 E.09337
G1 X132.42 Y115.364 E.00782
G1 X133.914 Y116.858 E.28859
G1 X134.163 Y118.268 E.19557
G1 X132.146 Y116.251 E.38962
G1 X132.146 Y117.413 E.15872
G1 X137.669 Y122.937 E1.06696
M106 S127.5
;LAYER_CHANGE
;Z:1.4
;HEIGHT:0.4
;BEFORE_LAYER_CHANGE
G92 E0
;1.4


G1 E-4.2 F3600
;WIPE_START
G1 F6240
G1 X135.347 Y120.615 E-1.8
;WIPE_END
G1 Z1.4 F7800
;AFTER_LAYER_CHANGE
;1.4
G1 X135.4 Y107.257
G1 E6 F2400
;TYPE:External perimeter
;WIDTH:1.12
G1 F900
G1 X136.447 Y106.558 E.21651
G1 X140.068 Y105.843 E.63477
G1 X143.311 Y106.488 E.56866
G1 X143.582 Y106.595 E.05011
G1 X146.504 Y108.548 E.60444
G1 X148.373 Y111.348 E.57897
G1 X148.495 Y111.642 E.05474
G1 X149.163 Y115.004 E.5895
G1 X148.563 Y118.011 E.52734
G1 X148.425 Y118.577 E.10019
G1 X146.499 Y121.457 E.59586
G1 X143.436 Y123.488 E.63206
G1 X140.061 Y124.157 E.59173
G1 X136.441 Y123.44 E.63467
G1 X133.67 Y121.585 E.57349
G1 X133.47 Y121.397 E.04721
G1 X131.527 Y118.486 E.60191
G1 X130.944 Y115.551 E.51463
G1 X130.85 Y114.916 E.1104
G1 X131.529 Y111.507 E.5978
G1 X133.246 Y108.939 E.53127
G1 X133.578 Y108.474 E.09826
G1 X135.325 Y107.307 E.36132
G1 E-4.2 F3600
;WIPE_START
G1 F6240
G1 X136.447 Y106.558 E-.73937
G1 X138.346 Y106.183 E-1.06063
;WIPE_END
G1 X138.247 Y107.21 F7800
G1 X135.589 Y112.908
G1 X136.637 Y112.908
G1 E6 F2400
G1 F900
G1 X136.831 Y112.699 E.04904
G1 X137.098 Y112.625 E.04765
G1 X142.902 Y112.625 E.99818
G1 X143.178 Y112.705 E.04942
G1 X143.363 Y112.908 E.04724
G1 X143.419 Y113.142 E.04138
